X:563
T:The Post Office
M:2/4
L:1/8
K:G
G/A/|"G"B/d/d/e/ d/B/A/G/|B/d/d/e/ dB/A/|"Em"B/e/e/f/ e/d/B/A/|\
B/e/e/f/ ee|"G"g/a/b/g/ "D"f/g/a/f/|
"G"g/f/e/d/ "C"eg/e/|"G"d/B/A/B/ "D"d/B/A/B/|\
"G"GG/G/ G:||:(g/a/)|"G"b/a/b/g/ "D"a/g/a/f/|"G"g/a/b/g/ "C"a/g/e/f/|
"G"g/f/g/e/ d/B/G/B/|"D"B/A/A/G/ A z|"G"g/a/b/g/ "D"f/g/a/f/|\
"G"g/f/e/d/ "C"eg/e/|"G"d/B/A/B/ "D"d/B/A/B/|"G"GG/G/ G:|
